X:1
T:An Die Musik
T:An Die Musik
T:Franz Schubert (1797 - 1828)
T:arr.Masahiro Matsuno rev.Paolo Romanello. 
C:Franz Schubert (1797 - 1828)
Z:rev. e dit. Paolo Romanello
%%score 1 ( 2 3 )
L:1/8
Q:1/4=66
M:2/2
K:C
V:1 treble nm="Alto" snm="A."
V:2 treble-8 nm="Guitar" snm="Guit."
V:3 treble-8 
V:1
 z8 | z8 |: z2 G2 c2 c2 | E6 A2 |{A} C3 C EDCD | E2 C2 z4 | z2 G2 A2 A2 | B,3 B, C3 C | EDCD E4 | %9
w: ||Do hol- de|Kunst, in|wie- viel grau- * en *|Stun- den|Wo mich des|Le- bens wil- der|Kreis * um strickt, *|
w: ||Oft hat ein|Seuf- zer,|dei- ner Harf * ent- *|flos- sen|Ein sü- ßer,|hei li ger Ak-|kord * von * dir|
 z8 | z2 c2 d3 F | E2 G4 AB | c3 e dBGF |{F} E2 E2 z2 G2 | A3 A A2 Bc | c3 c e3 d |{d} c4 z ABc | %17
w: |Hast du mein|Herz * zu *|war- mer Lieb * ent- *|zun- den Hast|mich in ei- ne *|beß- re Welt ent|rückt in ei- ne|
w: |Den Him- mel|beß- * rer *|Zei- ten mir * er- *|schlos- sen, Du|hol- de Kunst, ich *|dan- ke dir da-|für, Du hol de|
 c2 EE G2 B,B, | C4 z4 | z8 | z8 | z8 :| z8 |] %23
w: beß * re Welt * ent-|rückt|||||
w: Kunst, ich * dan- * ke|dir!|||||
V:2
 [Gce][Gce][Gce][Gce] [Gce][Gce][Gce][Gce] | [Gcg][Gcg][Gcg][Gcg] [GBf][GBf][FGB][FGB] |: %2
 [EGc][Gce][Gce][Gce] [Gce][Gce][Gce][Gce] | [Gce][Gce][Gce][Gce] [Gce][Gce][Gce][Gce] | %4
 z [Gce][Gce][Gce] z [GBf][GBf][GBf] | z [Gce][Gce][Gce] [Gce][Gce][Gce][Gce] | %6
 [Gcg][Gcg][Gcg][Gcg] [Acf][Acf][Acf][Acf] | z [DB][DB][DB] z [Ec][Ec][Ec] | %8
 z !3!!0!!4![FGd][FGd][FGd] z [Gce][Gce][Gce] | %9
"^III_____________________" !3!!2!!1![GBd][GBd][Bdg][GBdg] !3!!1![cdg][cdg]!2!!1![Bdg][Bdg] | %10
 [Gce][Gce][Gce][Gce] [Gdf][Gdf][GBf][GBf] | %11
"^III_______________________" [ceg][ceg][Bdg][Bdg] [cdg][cdg][Bdg][Bdg] | %12
 [cg][cg][cg][cg] [Gdf][Gdf][Gdf][GBf] | z [Gce][Gce][Gce] [GBf][GBf][_Bcg][_Bcg] | %14
 z [ca][ca][ca] z [c^da][cda][cda] | z !3!!4![ce][ce][ce] z !3!!1!!4![deb][deb][deb] | %16
"^V____________" z !1!!4![cec'][cec'][cec'] z !3!!2!!4![c^da][cda][cda] | %17
 z !2!!3![ce][ce][ce] z !1!!0![FGB][FGB][FGB] | [EGc][Ec][Ec][Ec] [Ec][Ec][FB][Gc] | %19
 [GB][FA][FA][FA] [FA]AAA | [FA]G[Ec][Ee] [Eg]ggg | [cg][df][Adf][Adf] f[FGB][FGB][FGB] :| %22
 [EGd][EGc].[EGc].[EGc] !arpeggio![EGc]4 |] %23
V:3
 z2 G,2 C2 C2 | E,4 G,2 G,2 |: C2 z2 z4 | z2 E,2 A,2 ^F,2 | G,2 z2 G,2 z2 | C2 G,2 C2 C2 | %6
 E,4 F,4 | G,2 ^G,2 A,4 | !2!B,4 C4 | !1!G,2 G2 !2!^F2 !1!=F2 | E2 C2 B,2 G,2 | C2 G,G ^F2 =F2 | %12
 E2 C2 B,3 G, | C4 D2 E2 | F4 ^F4 | !2!G4 !2!^G4 | !3!A4 !1!^F4 | !1!G4 !1!G,4 | C2 z2 z4 | %19
 F4 z F,A,B, | C4 z CDE | [F,A]4 G,4 :| C4 C4 |] %23

